packages/astro-components-stencil/src/icons/settings-system-daydream.svg

<svg xmlns="http://www.w3.org/2000/svg" viewBox="0 0 24 24"><g xmlns="http://www.w3.org/2000/svg" id="settings-system-daydream" fill-rule="nonzero">
            <path d="M9 16h6.5a2.5 2.5 0 000-5h-.05c-.24-1.69-1.69-3-3.45-3-1.4 0-2.6.83-3.16 2.02h-.16A2.994 2.994 0 006 13c0 1.66 1.34 3 3 3zM21 3H3c-1.1 0-2 .9-2 2v14c0 1.1.9 2 2 2h18c1.1 0 2-.9 2-2V5c0-1.1-.9-2-2-2zm-1 16.01H4c-.55 0-1-.45-1-1V5.99c0-.55.45-1 1-1h16c.55 0 1 .45 1 1v12.02c0 .55-.45 1-1 1z"/>
        </g></svg>

<svg width="24" height="24" viewBox="0 0 24 24" fill="none" xmlns="http://www.w3.org/2000/svg">
<path fill-rule="evenodd" clip-rule="evenodd" d="M21 3H3C1.9 3 1 3.9 1 5V19C1 20.1 1.9 21 3 21H21C22.1 21 23 20.1 23 19V5C23 3.9 22.1 3 21 3ZM9 16H15.5C16.88 16 18 14.88 18 13.5C18 12.12 16.88 11 15.5 11H15.45C15.21 9.31 13.76 8 12 8C10.6 8 9.4 8.83 8.84 10.02H8.68C7.17 10.18 6 11.45 6 13C6 14.66 7.34 16 9 16ZM4 19.01H20C20.55 19.01 21 18.56 21 18.01V5.99C21 5.44 20.55 4.99 20 4.99H4C3.45 4.99 3 5.44 3 5.99V18.01C3 18.56 3.45 19.01 4 19.01Z" fill="black"/>
</svg>
